X:564
T: HERZ MEIN HERZ WARUM SO TRAURIG
N: F1118
O: Europa, Mitteleuropa, Deutschland
R: Trost - Lied, Heimweh
M: 4/4
L: 1/8
K: F
AB | c3c=Bcdc | c=B_B2z2
BB | BGGEC2DE | F4z2
cc | fedcBAGF | EDD2z2
Bd | c3cc2de | g2f2
gfed | c3cc3E | F4z2

@@@ Tune index: 5995
